Simply-Purple-Circles/scalable/apps/emacs.svg

<svg xmlns="http://www.w3.org/2000/svg" width="48" height="48" viewBox="0 0 12.7 12.7"><path fill="#963996" d="M6.344.073a6.29 6.29 0 0 0-6.29 6.29 6.29 6.29 0 0 0 6.29 6.288 6.29 6.29 0 0 0 6.29-6.289 6.29 6.29 0 0 0-6.29-6.29zm-.018.936a5.407 5.407 0 0 1 5.407 5.407 5.407 5.407 0 0 1-5.407 5.407A5.407 5.407 0 0 1 .92 6.416 5.407 5.407 0 0 1 6.326 1.01zm2.516 1.684a2.46 2.46 0 0 0-.774.129c.272-.02.834.095.835.305.002.246-.282.242-.706.22-1.339-.074-3.339-.602-3.908-.289a.639.639 0 0 0-.347.567c0 .317.29.818.76 1.293.395.4 1.076.936 1.516 1.196.334.198.343.218.067.153-1.306-.308-2.669-.201-3.674.289-.513.25-.805.683-.744 1.104.043.306.196.561.532.893.28.277.534.461 1.058.768.707.412 1.725.738 2.81.964.134.027 2.363.471 3.107-.049.46-.321.506-1.05-.201-1.415.083.675-.373.802-1.263.743-.982-.064-1.773-.307-2.424-.521-.8-.276-1.657-.82-1.5-1.33.44-1.122 3.646-.79 4.246-.835-.719-.546-3.046-2.08-2.38-2.862.281-.331 1.114-.188 2.084-.012.88.159 2.202.652 2.235-.456.01-.344-.217-.614-.469-.731-.124-.058-.248-.137-.86-.124z"/></svg>

<?xml version="1.0" encoding="UTF-8" standalone="no"?>
<svg
   xmlns:dc="http://purl.org/dc/elements/1.1/"
   xmlns:cc="http://creativecommons.org/ns#"
   xmlns:rdf="http://www.w3.org/1999/02/22-rdf-syntax-ns#"
   xmlns:svg="http://www.w3.org/2000/svg"
   xmlns="http://www.w3.org/2000/svg"
   xmlns:sodipodi="http://sodipodi.sourceforge.net/DTD/sodipodi-0.dtd"
   xmlns:inkscape="http://www.inkscape.org/namespaces/inkscape"
   width="48"
   height="48"
   viewBox="0 0 12.7 12.7"
   version="1.1"
   id="svg4"
   sodipodi:docname="emacs.svg"
   inkscape:version="0.92.4 (5da689c313, 2019-01-14)">
  <metadata
     id="metadata10">
    <rdf:RDF>
      <cc:Work
         rdf:about="">
        <dc:format>image/svg+xml</dc:format>
        <dc:type
           rdf:resource="http://purl.org/dc/dcmitype/StillImage" />
        <dc:title></dc:title>
      </cc:Work>
    </rdf:RDF>
  </metadata>
  <defs
     id="defs8" />
  <sodipodi:namedview
     pagecolor="#ffffff"
     bordercolor="#666666"
     borderopacity="1"
     objecttolerance="10"
     gridtolerance="10"
     guidetolerance="10"
     inkscape:pageopacity="0"
     inkscape:pageshadow="2"
     inkscape:window-width="1087"
     inkscape:window-height="480"
     id="namedview6"
     showgrid="false"
     inkscape:zoom="4.9166667"
     inkscape:cx="2.1355932"
     inkscape:cy="24"
     inkscape:window-x="0"
     inkscape:window-y="25"
     inkscape:window-maximized="0"
     inkscape:current-layer="svg4" />
  <path
     d="m 6.344,0.073 a 6.29,6.29 0 0 0 -6.29,6.29 6.29,6.29 0 0 0 6.29,6.288 6.29,6.29 0 0 0 6.29,-6.289 6.29,6.29 0 0 0 -6.29,-6.29 z M 6.326,1.009 A 5.407,5.407 0 0 1 11.733,6.416 5.407,5.407 0 0 1 6.326,11.823 5.407,5.407 0 0 1 0.92,6.416 5.407,5.407 0 0 1 6.326,1.01 Z M 8.842,2.693 A 2.46,2.46 0 0 0 8.068,2.822 C 8.34,2.802 8.902,2.917 8.903,3.127 8.905,3.373 8.621,3.369 8.197,3.347 6.858,3.273 4.858,2.745 4.289,3.058 A 0.639,0.639 0 0 0 3.942,3.625 c 0,0.317 0.29,0.818 0.76,1.293 0.395,0.4 1.076,0.936 1.516,1.196 C 6.552,6.312 6.561,6.332 6.285,6.267 4.979,5.959 3.616,6.066 2.611,6.556 2.098,6.806 1.806,7.239 1.867,7.66 1.91,7.966 2.063,8.221 2.399,8.553 2.679,8.83 2.933,9.014 3.457,9.321 4.164,9.733 5.182,10.059 6.267,10.285 6.401,10.312 8.63,10.756 9.374,10.236 9.834,9.915 9.88,9.186 9.173,8.821 9.256,9.496 8.8,9.623 7.91,9.564 6.928,9.5 6.137,9.257 5.486,9.043 4.686,8.767 3.829,8.223 3.986,7.713 4.426,6.591 7.632,6.923 8.232,6.878 7.513,6.332 5.186,4.798 5.852,4.016 6.133,3.685 6.966,3.828 7.936,4.004 8.816,4.163 10.138,4.656 10.171,3.548 10.181,3.204 9.954,2.934 9.702,2.817 9.578,2.759 9.454,2.68 8.842,2.693 Z"
     id="path2"
     inkscape:connector-curvature="0"
     style="fill:#963996" />
</svg>
